src/images/icons/feature-shadow-ban.svg

<svg width="134px" height="134px" viewBox="0 0 134 134" xmlns="http://www.w3.org/2000/svg">
    <g stroke="none" stroke-width="1" fill="none" fill-rule="evenodd">
        <path d="M67,43 C80.254834,43 91,53.745166 91,67 C91,80.254834 80.254834,91 67,91 C53.745166,91 43,80.254834 43,67 C43,53.745166 53.745166,43 67,43 Z M81.8668226,56.8491548 L56.2952086,81.4723439 C59.2871085,83.6890294 62.9904574,85 67,85 C76.9411255,85 85,76.9411255 85,67 C85,63.2344222 83.8437106,59.7389102 81.8668226,56.8491548 Z M67,49 C57.0588745,49 49,57.0588745 49,67 C49,70.7655778 50.1562894,74.2610898 52.1331774,77.1508452 L77.7047914,52.5276561 C74.7128915,50.3109706 71.0095426,49 67,49 Z" fill="#EBA7A7" fill-rule="nonzero"></path>
    </g>
</svg>

<svg xmlns="http://www.w3.org/2000/svg" viewBox="0 0 134 134">
  <path
    d="M67 43c13.255 0 24 10.745 24 24S80.255 91 67 91 43 80.255 43 67s10.745-24 24-24zm14.867 13.85L56.295 81.471A17.92 17.92 0 0067 85c9.941 0 18-8.059 18-18 0-3.766-1.156-7.261-3.133-10.15zM67 49c-9.941 0-18 8.059-18 18 0 3.766 1.156 7.261 3.133 10.15l25.572-24.622A17.92 17.92 0 0067 49z"
    fill="#EBA7A7" fill-rule="nonzero" />
</svg>
